X:232
T:Scotch Air. Le4.232
M:C
L:1/8
Q:2/4=50
B:L.Leadley MS#4 c1850
Z:Village Music Project 2016 Steve Mansfield
K:Dm
(D>E) (F>G) (A2d) z/A/ | (B2d) z/B/ (A2d) F/E/ | (D>E) (F>G) A2d>e | f2 e/f//g//f/e/ d3d |
(^cA) (=Bc) (d>e) (fe/d/) | ^c(A=Bc) d3e | (f!0!e) {e/}(!2!d>c) (!2!de/f/) (!1!FG/A/) | (B>G) AF E2zd |
^cA(=Bc) (d>e) f(e/d/) | eA !0!a2 {ege} Hd3e | \
(f>e) (g/f/e/d/) (c/{dc}=B/c/!0!A/) (!1!F!3!A) | (B>G) (FG/A/) H!1!E2 HA2 {EGE} |
(D>E) (F>G) (!2!A2 !0!d)z/A/ | (B2!0!d)z B/ (A2!0!d) !2!F/E/ | \
(D>E) (F>G) !4!A2 (!1!de) | Hf2 {d}He2 {^d/e/g/f/} H=d4 |]

